X: 164
T: Lauda anima mea dominum
N: Derived from Rue2006-Lauda_anima_mea_dominum.krn
C: Pierre de la Rue
%%abc-version 2.0
%%abcx-abcm2ps-target-version 5.9.1 (29 Sep 2008)
%%abc-creator hum2abc beta
%%abcx-conversion-date 2019/02/17 08:01:16
%%abc-edited-by Jesse Rodin
%%abc-edited-by Chris Gage 01-02-2013
%%abcx-initial-encoding-date 2013/07/20/
%%humdrum-veritas 1275334719
%%humdrum-veritas-data 831337037
%%linebreak <none>
%%barnumbers 0
L: 1/4
M: 2/1
Q: 1/2=120
%%staves [1 2 3 4]
V: 1 clef=treble
V: 2 clef=treble-8
V: 3 clef=treble-8
V: 4 clef=bass
K: F
[V:1] z8 | 
[V:2] z8 | 
[V:3] A8 | 
[V:4] z8 | 
[V:1] z4z2F2- | 
[V:2] z4z2d2- | 
[V:3] c4A2A2- | 
[V:4] z4z2D,2- | 
[V:1] F2F2F4 | 
[V:2] d2d2d4 | 
[V:3] A2A2A4 | 
[V:4] D,2D,2D,4 | 
[V:1] F4F4 | 
[V:2] d4c4 | 
[V:3] A4A4 | 
[V:4] D,3E,F,4 | 
[V:1] F6E2 | 
[V:2] d6c2- | 
[V:3] A6A2 | 
[V:4] D,6A,,2 | 
[V:1] E4D2d2 | 
[V:2] cBA4G2 | 
[V:3] A4z4 | 
[V:4] A,,4B,,4 | 
[V:1] cBAGFEA2- | 
[V:2] A2c3BAG | 
[V:3] z2A2A4 | 
[V:4] A,,2A,3G,F,E, | 
[V:1] AGFED3E | 
[V:2] F2f3ga2- | 
[V:3] A2A4A2 | 
[V:4] D,3E,F,2D,2- | 
[V:1] F3GA4 | 
[V:2] agfed4 | 
[V:3] A4z2A2 | 
[V:4] D,E,F,3E,D,C, | 
[V:1] d4z2A2 | 
[V:2] z2d2c2f2- | 
[V:3] B4A4 | 
[V:4] B,,C,D,E,F,4 | 
[V:1] B4A4 | 
[V:2] fe2df3d | 
[V:3] G4F4 | 
[V:4] z8 | 
[V:1] G4FGAB | 
[V:2] edcBA4 | 
[V:3] z8 | 
[V:4] E,4F,4 | 
[V:1] cde2f4 | 
[V:2] G2c3AB2 | 
[V:3] z8 | 
[V:4] E,4D,4 | 
[V:1] e4d2d2 | 
[V:2] G2c4B2 | 
[V:3] G4G4 | 
[V:4] C,3B,,G,,4 | 
[V:1] c3AB2G2- | 
[V:2] c4d4- | 
[V:3] G4G4 | 
[V:4] C,4G,,4 | 
[V:1] G2^F2G4 | 
[V:2] d2d2B2c2- | 
[V:3] A4G4 | 
[V:4] D,2D,2G,,2C,2 | 
[V:1] z2G2G4 | 
[V:2] cBG2B4- | 
[V:3] z4z2G2 | 
[V:4] C,4G,,4 | 
[V:1] D2d2d4 | 
[V:2] B2AGF2G2 | 
[V:3] G4D4 | 
[V:4] B,,4B,,4 | 
[V:1] A4z2D2- | 
[V:2] A8 | 
[V:3] F4F4 | 
[V:4] A,,2D,3C,D,2 | 
[V:1] D2C2D3E | 
[V:2] z2A2A2D2- | 
[V:3] E4D4 | 
[V:4] A,,4z4 | 
[V:1] FGA4F2- | 
[V:2] DEFGA2D2 | 
[V:3] z2D3EFG | 
[V:4] D,3E,F,G,A,2 | 
[V:1] FGABc3d | 
[V:2] F4z2c2- | 
[V:3] ABcde2f2- | 
[V:4] D,4z2A,2- | 
[V:1] c2F2G4 | 
[V:2] c2d2G4 | 
[V:3] fed4^c2 | 
[V:4] A,G,F,2E,4 | 
[V:1] F3GA2B2- | 
[V:2] A4z2d2- | 
[V:3] d8- | 
[V:4] D,4z2G,,2- | 
[V:1] B2AGF2D2- | 
[V:2] d2cBA2B2- | 
[V:3] d8- | 
[V:4] G,,A,,B,,C,D,2B,,2- | 
[V:1] DEFGA2G2- | 
[V:2] B2AGF2B2 | 
[V:3] d8- | 
[V:4] B,,C,D,E,F,2G,2 | 
[V:1] G2F2B4 | 
[V:2] A4GABc | 
[V:3] d8 | 
[V:4] D,4G,,2G,2- | 
[V:1] A4G4 | 
[V:2] d4z4 | 
[V:3] z8 | 
[V:4] G,2F,2G,2B,2 | 
[V:1] z8 | 
[V:2] e4g4 | 
[V:3] z8 | 
[V:4] A,4G,4 | 
[V:1] z8 | 
[V:2] e4e4 | 
[V:3] A4c4 | 
[V:4] z8 | 
[V:1] A4c4 | 
[V:2] z2e2e3e | 
[V:3] A4A4- | 
[V:4] z8 | 
[V:1] A4A4 | 
[V:2] e4f4 | 
[V:3] A2A2A3A | 
[V:4] z8 | 
[V:1] z2A2F2G2 | 
[V:2] e4d3d | 
[V:3] A4B4 | 
[V:4] z8 | 
[V:1] A4B4 | 
[V:2] c4d4 | 
[V:3] A4G3F | 
[V:4] z8 | 
[V:1] A4G4- | 
[V:2] d4d2d2 | 
[V:3] F4G4 | 
[V:4] z8 | 
[V:1] G2G2D2G2- | 
[V:2] e3ed4 | 
[V:3] G4G2G2 | 
[V:4] z8 | 
[V:1] G2F2G4 | 
[V:2] z2A2B2c2- | 
[V:3] A3GG4 | 
[V:4] z4z2C,2 | 
[V:1] G2G3FED | 
[V:2] cde3dcB | 
[V:3] z2G2G4 | 
[V:4] C,4C,4 | 
[V:1] E4D4 | 
[V:2] c2G2B3A/G/ | 
[V:3] G4G4 | 
[V:4] C,4G,,4 | 
[V:1] z2D4D2 | 
[V:2] F8 | 
[V:3] D4F4- | 
[V:4] B,,8 | 
[V:1] CDEFG4 | 
[V:2] z4G4 | 
[V:3] F4E4 | 
[V:4] A,,4G,,4 | 
[V:1] F3GA2F2- | 
[V:2] A2B2A2d2- | 
[V:3] D8- | 
[V:4] z8 | 
[V:1] FGA3GFE | 
[V:2] def3edc | 
[V:3] D8 | 
[V:4] z8 | 
[V:1] D2G4^F2 | 
[V:2] B3A/G/A4 | 
[V:3] d4z4 | 
[V:4] z8 | 
[V:1] G4z2d2 | 
[V:2] G2d3cBA | 
[V:3] z4z2d2- | 
[V:4] z2G,2G,4 | 
[V:1] d4d4 | 
[V:2] B2GABcde | 
[V:3] dcBAB4 | 
[V:4] G,4G,4 | 
[V:1] d4A4 | 
[V:2] f4z2F2- | 
[V:3] A2d4c2- | 
[V:4] D,4F,4- | 
[V:1] c8 | 
[V:2] FGABc4 | 
[V:3] c2BAG4 | 
[V:4] F,4E,4 | 
[V:1] B4A3G/A/ | 
[V:2] d3ef3e | 
[V:3] F4f2d2- | 
[V:4] D,8- | 
[V:1] B2A3GFE | 
[V:2] d4z2d2- | 
[V:3] def3edc | 
[V:4] D,8- | 
[V:1] D2G4F2 | 
[V:2] d2cBd4 | 
[V:3] B3A/G/A4 | 
[V:4] D,8 | 
[V:1] B3AG2d2- | 
[V:2] B8 | 
[V:3] G6F2 | 
[V:4] G,,8 | 
[V:1] d2c2d2B2 | 
[V:2] A4A3F | 
[V:3] E4D4 | 
[V:4] A,,4z2D,2 | 
[V:1] A2B2A4 | 
[V:2] F2F3GA2- | 
[V:3] z4z2A2 | 
[V:4] D,2D,2F,3D, | 
[V:1] z8 | 
[V:2] AFF2G4 | 
[V:3] A2A2c3A | 
[V:4] D,4C,4 | 
[V:1] z8 | 
[V:2] z2d4c2 | 
[V:3] A4G4 | 
[V:4] D,4E,4 | 
[V:1] z2A2A2A2 | 
[V:2] d4e4 | 
[V:3] A4z2A2 | 
[V:4] D,3C,A,,4 | 
[V:1] c3BG3A | 
[V:2] f2e2e4 | 
[V:3] A2A2c3B | 
[V:4] z2A,2E,3F, | 
[V:1] B2A2GFED | 
[V:2] d4d4 | 
[V:3] G2A2B4 | 
[V:4] G,2F,2B,,C,D,E, | 
[V:1] C2F4E2 | 
[V:2] z2d2cBAG | 
[V:3] A2B2G4 | 
[V:4] F,2B,,2C,4 | 
[V:1] F3E/D/C4 | 
[V:2] A4z2c2 | 
[V:3] F4z4 | 
[V:4] F,,4z2C,2 | 
[V:1] z8 | 
[V:2] c3BA2G2- | 
[V:3] z8 | 
[V:4] C,3C,C,4 | 
[V:1] z8 | 
[V:2] G2A2G2c2- | 
[V:3] z8 | 
[V:4] C,2C,2C,2C,2 | 
[V:1] z8 | 
[V:2] c2=B2c4 | 
[V:3] z4z2G2- | 
[V:4] D,4C,4 | 
[V:1] z8 | 
[V:2] d2e4dc | 
[V:3] G2G2G2G2 | 
[V:4] B,,2C,4B,,A,, | 
[V:1] z4G4 | 
[V:2] d2e2d4- | 
[V:3] G4G4 | 
[V:4] B,,2C,2G,,4- | 
[V:1] B4A4 | 
[V:2] d4c4 | 
[V:3] D4F4 | 
[V:4] G,,4z4 | 
[V:1] G4z4 | 
[V:2] z4d4 | 
[V:3] E4D4 | 
[V:4] G,,4B,,4 | 
[V:1] z8 | 
[V:2] f4e4 | 
[V:3] z4G4 | 
[V:4] A,,4G,,4 | 
[V:1] z8 | 
[V:2] d4z2d2- | 
[V:3] B4A4 | 
[V:4] D,4F,4 | 
[V:1] G4B4 | 
[V:2] d2c2d2f2- | 
[V:3] G4z4 | 
[V:4] E,4D,4 | 
[V:1] A8 | 
[V:2] fedcd4 | 
[V:3] d4f4 | 
[V:4] z8 | 
[V:1] GABcd4 | 
[V:2] G8 | 
[V:3] e4d4 | 
[V:4] G,4B,4 | 
[V:1] f4e4 | 
[V:2] cdefg3f | 
[V:3] z8 | 
[V:4] A,4G,4 | 
[V:1] d6cB | 
[V:2] d3ef2d2 | 
[V:3] z2d3ef2- | 
[V:4] B,8 | 
[V:1] c2d4^c2 | 
[V:2] a6a2 | 
[V:3] f2ede4 | 
[V:4] A,8 | 
[V:1] d4z4 | 
[V:2] f4g2a2- | 
[V:3] d4z4 | 
[V:4] D,4E,2F,2- | 
[V:1] A4c4 | 
[V:2] a2gfe4 | 
[V:3] z8 | 
[V:4] F,2E,D,C,4 | 
[V:1] A4A4 | 
[V:2] z4d4 | 
[V:3] d4f4 | 
[V:4] D,8 | 
[V:1] A4A4 | 
[V:2] f4d4- | 
[V:3] d4d4 | 
[V:4] z8 | 
[V:1] A4A4 | 
[V:2] d2f2e2f2- | 
[V:3] d4c2d2- | 
[V:4] z8 | 
[V:1] A4A4 | 
[V:2] f2edc2d2 | 
[V:3] d2cBA2d2- | 
[V:4] z8 | 
[V:1] z4A3B | 
[V:2] e4d4 | 
[V:3] d2c2d3c | 
[V:4] z8 | 
[V:1] c2B3AA2- | 
[V:2] e2f4e2 | 
[V:3] A2d4c2 | 
[V:4] z2B,,4C,2 | 
[V:1] A2G2A4 | 
[V:2] f3e/d/c3d | 
[V:3] B4A3B | 
[V:4] D,2E,2F,3E, | 
[V:1] z4A4 | 
[V:2] efg2d4 | 
[V:3] cde2f2d2- | 
[V:4] C,4z4 | 
[V:1] A4A4 | 
[V:2] f4F2ED | 
[V:3] d2cBA3B | 
[V:4] z2D,4C,B,, | 
[V:1] z2A2d4 | 
[V:2] E2F2D4 | 
[V:3] c2A4G2 | 
[V:4] A,,4B,,4 | 
[V:1] c4B2d2- | 
[V:2] E2e2d3c | 
[V:3] A4B4- | 
[V:4] A,,4z4 | 
[V:1] d2c2B4 | 
[V:2] def4e2 | 
[V:3] B2A2G4 | 
[V:4] z8 | 
[V:1] A4z4 | 
[V:2] f4z2c2 | 
[V:3] F6G2 | 
[V:4] F,6E,2 | 
[V:1] A4A4 | 
[V:2] f3ec4 | 
[V:3] A3Bc2f2- | 
[V:4] D,3C,A,,4 | 
[V:1] A4B4 | 
[V:2] z2e2f2g2 | 
[V:3] fec2d4 | 
[V:4] z2A,,4G,,2 | 
[V:1] A4A3G | 
[V:2] e4f2e2- | 
[V:3] c4z2c2- | 
[V:4] A,,8 | 
[V:1] A2G4F2- | 
[V:2] ecd4c2 | 
[V:3] cAB4A2 | 
[V:4] z2G,,4A,,2 | 
[V:1] F2E2F4 | 
[V:2] d3c/B/A4- | 
[V:3] G4F3G | 
[V:4] B,,2C,2D,3E, | 
[V:1] z4G4 | 
[V:2] A2G2G4 | 
[V:3] A2B2c4 | 
[V:4] F,2G,2C,4 | 
[V:1] G4G4 | 
[V:2] d2e4d2 | 
[V:3] B2c4B2 | 
[V:4] z8 | 
[V:1] A4G4 | 
[V:2] c2f2d4 | 
[V:3] A4B4- | 
[V:4] F,4G,4- | 
[V:1] G4z4 | 
[V:2] d4d4 | 
[V:3] B2AGA3B | 
[V:4] G,2F,E,D,2F,2 | 
[V:1] G4D4 | 
[V:2] c4d2f2- | 
[V:3] G4A2d2- | 
[V:4] E,4D,4 | 
[V:1] F4F4 | 
[V:2] f2edc2A2 | 
[V:3] d2cBA2d2- | 
[V:4] z2D,2F,3G, | 
[V:1] E4D3E | 
[V:2] A4A4 | 
[V:3] d2c2d3c/B/ | 
[V:4] A,4D,4 | 
[V:1] FGA2B4 | 
[V:2] D4G4 | 
[V:3] A4G4 | 
[V:4] z2D,2G,,A,,B,,C, | 
[V:1] A2B2A4- | 
[V:2] F3GA4- | 
[V:3] D4F4 | 
[V:4] D,3C,A,,2D,2- | 
[V:1] A2d4c2 | 
[V:2] A2A2A4 | 
[V:3] F4E4 | 
[V:4] D,C,D,2A,,4 | 
[V:1] d6cB | 
[V:2] F2B4AG | 
[V:3] D8- | 
[V:4] B,,2G,,3A,,B,,C, | 
[V:1] A3FB4 | 
[V:2] F4G4 | 
[V:3] D8- | 
[V:4] D,4G,,4 | 
[V:1] A8 ||  
[V:2] F8 ||  
[V:3] D8 ||  
[V:4] D,8 ||  
[V:1]  [K:F] [K:clef=treble][M:2/1]z8 | 
[V:2]  [K:F] [K:clef=treble-8][M:2/1]z8 | 
[V:3]  [K:F] [K:clef=treble-8][M:2/1]z8 | 
[V:4]  [K:F] [K:clef=bass][M:2/1]D,4F,4 | 
[V:1] z8 | 
[V:2] z8 | 
[V:3] z4A4 | 
[V:4] D,4D,4 | 
[V:1] z8 | 
[V:2] z8 | 
[V:3] c4A4 | 
[V:4] C,2F,4E,D, | 
[V:1] z8 | 
[V:2] z8 | 
[V:3] A4G2c2- | 
[V:4] C,2D,2G,,2A,,2- | 
[V:1] z8 | 
[V:2] z8 | 
[V:3] c2BAG2A2 | 
[V:4] A,,2B,,2C,2A,,2 | 
[V:1] z8 | 
[V:2] z8 | 
[V:3] D2F4G2 | 
[V:4] B,,8 | 
[V:1] z8 | 
[V:2] z8 | 
[V:3] A3Bc2d2- | 
[V:4] A,,2A,4B,2- | 
[V:1] z8 | 
[V:2] z8 | 
[V:3] d2c2B4 | 
[V:4] B,A,A,4G,2 | 
[V:1] z8 | 
[V:2] z8 | 
[V:3] A4z2A2 | 
[V:4] A,2D,2D,2D,2 | 
[V:1] z8 | 
[V:2] z8 | 
[V:3] A2A2c3B | 
[V:4] F,3E,C,3D, | 
[V:1] z8 | 
[V:2] z8 | 
[V:3] G3AB3B | 
[V:4] E,3E,D,4 | 
[V:1] z8 | 
[V:2] z8 | 
[V:3] A4A2G2- | 
[V:4] D,2C,4B,,2- | 
[V:1] z8 | 
[V:2] z8 | 
[V:3] GFF4E2 | 
[V:4] B,,A,,A,,2G,,4 | 
[V:1] z4z2E2 | 
[V:2] z4z2c2 | 
[V:3] F4z2G2 | 
[V:4] F,,4z2C,2 | 
[V:1] E4D2G2 | 
[V:2] c4B4 | 
[V:3] G4G4- | 
[V:4] C,4G,,4 | 
[V:1] G4D4 | 
[V:2] c2d4cB | 
[V:3] G2G2G4 | 
[V:4] z2G,,2G,,A,,B,,C, | 
[V:1] z2F4ED | 
[V:2] AGFED2A2- | 
[V:3] D4F4 | 
[V:4] D,4D,2D,2 | 
[V:1] C2D4^C2 | 
[V:2] A2G2A4- | 
[V:3] E2D2E4 | 
[V:4] A,,2B,,2A,,4 | 
[V:1] D3EF2G2 | 
[V:2] A2B2c2d2 | 
[V:3] DEFGA2B2 | 
[V:4] D,4z4 | 
[V:1] A4z2c2- | 
[V:2] e6E2 | 
[V:3] c3BG2A2- | 
[V:4] A,,4C,4 | 
[V:1] cAd4^c2 | 
[V:2] E4z2A2- | 
[V:3] A2GFE4 | 
[V:4] A,,4A,,4 | 
[V:1] d4c4- | 
[V:2] AFG2A3B | 
[V:3] D4E4- | 
[V:4] B,,4A,,4 | 
[V:1] c4z2c2- | 
[V:2] c3BG2A2- | 
[V:3] E2F2E2F2 | 
[V:4] A,,4G,,2F,,2 | 
[V:1] c2d4cB | 
[V:2] A2F2G4 | 
[V:3] C2F4E2 | 
[V:4] A,,2B,,2G,,4 | 
[V:1] A4c3c | 
[V:2] A3Bc3c | 
[V:3] F4G3G | 
[V:4] F,,4C,3C, | 
[V:1] c2c2c3c | 
[V:2] c2c2c4 | 
[V:3] G2G2A4 | 
[V:4] C,2C,2F,,G,,A,,B,, | 
[V:1] G4z2A2 | 
[V:2] c2d3cA2 | 
[V:3] G2D2F4 | 
[V:4] C,2B,,4A,,2 | 
[V:1] D2F4ED | 
[V:2] B2A6 | 
[V:3] G2A4GF | 
[V:4] G,,2D,6 | 
[V:1] EDD4^C2 | 
[V:2] B2G2A4 | 
[V:3] GFEDE4 | 
[V:4] G,,2B,,2A,,4 | 
[V:1] D4z4 | 
[V:2] FGABcde2 | 
[V:3] DEFGABc2 | 
[V:4] D,3C,A,,4 | 
[V:1] A4c4 | 
[V:2] f4e4 | 
[V:3] d3cA4 | 
[V:4] z8 | 
[V:1] A4A4 | 
[V:2] d4f4 | 
[V:3] z8 | 
[V:4] z8 | 
[V:1] z2B4A2 | 
[V:2] d4d3c | 
[V:3] z8 | 
[V:4] z8 | 
[V:1] G2A2B2A2- | 
[V:2] B2c2d2c2- | 
[V:3] z8 | 
[V:4] z8 | 
[V:1] AGF4E2 | 
[V:2] cBA2G4 | 
[V:3] z8 | 
[V:4] z8 | 
[V:1] F2G3GG2 | 
[V:2] F2B3Bc2 | 
[V:3] z8 | 
[V:4] z8 | 
[V:1] G3GD2F2 | 
[V:2] B3cB2A2- | 
[V:3] z8 | 
[V:4] z8 | 
[V:1] E2D2E4 | 
[V:2] A2d4^c2 | 
[V:3] z8 | 
[V:4] z8 | 
[V:1] D8 | 
[V:2] d8 | 
[V:3] z4z2A2- | 
[V:4] z2D,3E,F,D, | 
[V:1] z8 | 
[V:2] z8 | 
[V:3] ABcAc2B2 | 
[V:4] F,2E,2C,2D,2 | 
[V:1] z8 | 
[V:2] z8 | 
[V:3] G2A2B2c2 | 
[V:4] E,2F,2G,2E,2 | 
[V:1] z8 | 
[V:2] z8 | 
[V:3] d2B2A4 | 
[V:4] D,4z2F,2 | 
[V:1] z8 | 
[V:2] z8 | 
[V:3] z2c2A2B2 | 
[V:4] D,2E,2F,2D,2 | 
[V:1] z8 | 
[V:2] z8 | 
[V:3] c2A2G3A | 
[V:4] C,3D,E,3E, | 
[V:1] z8 | 
[V:2] z8 | 
[V:3] B3BA2d2- | 
[V:4] D,4F,4- | 
[V:1] z8 | 
[V:2] z8 | 
[V:3] d2c2B2A2- | 
[V:4] F,2E,2D,2C,2 | 
[V:1] z4z2A2 | 
[V:2] z4z2d2 | 
[V:3] A2G2A2A2 | 
[V:4] B,,4A,,2D,2 | 
[V:1] F2F2F2F2 | 
[V:2] c2c2c2c2 | 
[V:3] A2A2A2A2 | 
[V:4] F,2F,2F,2F,2 | 
[V:1] F4E4 | 
[V:2] d4c4 | 
[V:3] B4G4 | 
[V:4] B,,4C,4 | 
[V:1] F4E2C2- | 
[V:2] A3Bc4- | 
[V:3] F4G2A2- | 
[V:4] D,4C,2F,,2- | 
[V:1] CA,D4^C2 | 
[V:2] c2B2A4 | 
[V:3] A2GFE4 | 
[V:4] F,,2G,,2A,,4 | 
[V:1] [M:3/1]D2E2F2G2A4- | 
[V:2] [M:3/1]F8F4 | 
[V:3] [M:3/1]D8z4 | 
[V:4] [M:3/1]D,8F,4 | 
[V:1] A2G2F4E4 | 
[V:2] F8G4 | 
[V:3] A8c4 | 
[V:4] D,8C,4 | 
[V:1] F6E2C4 | 
[V:2] F6G2A2F2 | 
[V:3] A8A4 | 
[V:4] D,6C,2A,,4 | 
[V:1] F6G2A2F2 | 
[V:2] f6e2c2d2 | 
[V:3] A8A4 | 
[V:4] D,6E,2F,2D,2 | 
[V:1] A4G2F2E4 | 
[V:2] c8c4 | 
[V:3] A8A4 | 
[V:4] F,6G,2A,2F,2 | 
[V:1] C6D2E4 | 
[V:2] A6B2c4 | 
[V:3] A8A4 | 
[V:4] A,6G,2F,2E,2 | 
[V:1] F6G2A2F2 | 
[V:2] d8e4 | 
[V:3] A8z4 | 
[V:4] D,8C,4 | 
[V:1] B4A2G2F4 | 
[V:2] d8c4 | 
[V:3] B8A4 | 
[V:4] B,,2C,2D,2E,2F,4 | 
[V:1] E8D4 | 
[V:2] c8d4 | 
[V:3] G6A2B4 | 
[V:4] C,8B,,4 | 
[V:1] E6F2G4 | 
[V:2] c8B4 | 
[V:3] A6G2G4 | 
[V:4] C,6B,,2G,,4 | 
[V:1] A4B6AG | 
[V:2] c4d4G4 | 
[V:3] F8E4 | 
[V:4] A,,4G,,8 | 
[V:1] A4c4d4 | 
[V:2] c6B2G4 | 
[V:3] F4z4G4 | 
[V:4] F,,4C,4B,,4 | 
[V:1] G6A2B4 | 
[V:2] c8d4 | 
[V:3] G8G4 | 
[V:4] C,6B,,2G,,4 | 
[V:1] c6B2G4- | 
[V:2] c8B4 | 
[V:3] G8G4 | 
[V:4] C,2D,2E,2F,2G,4 | 
[V:1] G2F2E4D4 | 
[V:2] c4G4B4 | 
[V:3] G4G4G4 | 
[V:4] C,8B,,4 | 
[V:1] C8D4 | 
[V:2] c8B4 | 
[V:3] A8G4 | 
[V:4] A,,8B,,4 | 
[V:1] E6F2G4 | 
[V:2] G4B4G4 | 
[V:3] G6F2D4 | 
[V:4] C,4G,,4B,,4 | 
[V:1] F6E2C4 | 
[V:2] A8A4 | 
[V:3] F8E4 | 
[V:4] F,,6G,,2A,,4 | 
[V:1] D8^C4 | 
[V:2] G4A8 | 
[V:3] D4E8 | 
[V:4] B,,4A,,8 | 
[V:1] D12 |]  
[V:2] A12 |]  
[V:3] D12 |]  
[V:4] D,12 |]  



